svg/u1f94b.svg

<svg viewBox="0 0 128 128" xmlns="http://www.w3.org/2000/svg">
  <path d="M52.95,5.41c0,0-2.58-0.3-5.47,1.89c-3.66,2.78-3.28,4.08-3.28,4.08s-7.46,0.99-15.81,7.46 S14.48,37.22,11.5,43.08S4.44,57,3.94,59.19s-0.4,3.68,0.3,7.46c0.7,3.78,4.08,15.61,4.87,18.99c0.8,3.38,2.98,8.85,3.18,10.24 s4.39,1.86,9.24,0.8c4.08-0.89,7.95-3.38,8.35-4.77s-2.88-11.03-4.47-15.31c-1.59-4.27-2.58-8.95-2.58-8.95s2.29-3.78,4.27-7.46 s6.16-10.34,6.16-10.34s0.3,3.98,0.3,8.35s-1.39,9.94-0.3,12.82c1.09,2.88,3.08,7.55,3.08,7.55s-2.19,9.44-4.87,17.89 s-4.37,13.32-4.37,13.32s1.19,0.99,2.68,1.69c1.49,0.7,2.78,1.09,2.78,1.09l-0.6,3.18c0,0,10.64,7.06,32.6,7.55 c21.97,0.5,37.97-6.76,38.57-8.45c0.6-1.69-6.66-26.44-7.16-28.33c-0.5-1.89-2.68-10.14-2.68-10.14s3.08-2.58,3.38-8.75 s-0.5-17.69,0.3-17.89c0.8-0.2,8.25,16.8,8.25,16.8s-0.6,8.25-2.39,14.51c-1.79,6.26-2.78,9.84-2.19,10.93 c0.6,1.09,3.28,3.38,8.95,4.47c5.67,1.09,9.84,0.89,10.34-0.8c0.5-1.69,2.98-16.1,3.68-25.65s-0.8-14.51-2.29-18.49 c-1.49-3.98-6.76-12.23-8.55-17.2s-5.07-13.52-7.55-14.91s-8.25-4.37-12.92-5.77c-4.67-1.39-8.85-2.68-8.85-2.68 S82.63,8.38,78.4,6.5c-2.68-1.19-4.37-0.7-4.37-0.7l-9.94,1.99L52.95,5.41z" fill="#C9C9C9"/>
  <path d="M27.33,23.87c0,0-5.6,4.67-10.58,14.31s-6.01,14.93-7.78,17.11s-3.42,4.77-2.18,10.99 s7.05,27.69,7.05,27.69s4.98-0.83,7.57-1.66c2.59-0.83,5.7-1.97,5.5-2.9c-0.21-0.93-6.22-21.88-6.22-21.88s-6.84-3.53-6.22-4.25 c0.62-0.73,7.05,0.1,7.05,0.1s4.87-7.98,6.33-10.58c1.45-2.59,2.8-4.25,2.7-5.5c-0.1-1.24-3.01-9.33-2.18-10.16 c0.83-0.83,6.12,6.64,7.36,8.09c1.24,1.45,1.56,2.18,1.56,2.18s-1.76,18.87-0.62,20.43s2.8,1.45,2.8,1.45s7.36-10.27,11.41-17.11 s6.33-11.61,6.33-11.61S50.68,31.07,47.24,24c-2.87-5.91-3.64-10.39-3.64-10.39s-3.84,1.35-6.74,3.11s-5.29,3.53-5.29,3.53 s4.67,11.82,3.21,13.17C33.34,34.76,27.33,23.87,27.33,23.87z" fill="#FEFEFE"/>
  <path d="M58.94,38.99c0,0,2.87-4.97,2.66-5.67s-6.53-8.03-9.04-13.24c-4.48-9.32-2.52-12.33-2.52-12.33 s-1.33,0.35-2.73,2.03s-1.96,3.29-1.96,3.29s0.98,5.11,3.71,10.72C53.12,32.11,58.94,38.99,58.94,38.99z" fill="#FEFEFE"/>
  <path d="M73.65,8.03c0,0,1.61-0.56,2.38-0.63c0.77-0.07,2.72,1,3.92,2.03c1.21,1.04,2.31,2.94,2.31,2.94 s-2.53,8.72-9.87,22.49c-7.35,13.77-14.34,25.96-17.76,31.38s-6.42,9.27-6.42,9.27s-1.78,0.71-2.43-1.21 c-0.64-1.93-1.28-5.56-1.28-5.56l11.13-16.69l8.63-16.4l7.77-16.76L73.65,8.03z" fill="#FEFEFE"/>
  <path d="M84.26,13.55c0.64-0.14,3.9,0.7,8.32,2.41c4.42,1.71,8.49,3.71,8.63,4.71 c0.14,1-4.07,13.27-2.71,13.84s6.35-9.84,7.13-9.84c0.78,0,2.92,3.57,3.99,6.56s1.5,5.71,2.5,7.63s8.7,12.55,8.84,25.25 s-2.85,27.32-3.21,28.17c-0.36,0.86-4.07,1.36-7.28,0.57c-3.21-0.78-7.63-2-7.28-3.42c0.36-1.43,2.07-6.85,2.92-10.06 c0.86-3.21,1.14-6.92,1.5-7.49c0.36-0.57,7.42-3.35,7.28-4.42c-0.14-1.07-5.71-0.86-6.7-2.14c-1-1.28-8.84-17.9-8.92-19.04 c-0.07-1.14,3.71-6.85,2.57-7.63c-1.14-0.78-10.06,10.27-10.2,10.98c-0.14,0.71,1.57,4.49,1.64,10.27c0.07,5.78,1,9.7-3,11.91 c-3.99,2.21-11.34,3-16.33,1.78s-6.42-3.28-6.42-3.28s-3.42,1.85-8.06,3.21s-8.16,1.65-8.16,1.65s11.9-17.05,21.09-35.47 C81.78,20.93,84.26,13.55,84.26,13.55z" fill="#FEFEFE"/>
  <path d="M41.87,90.37c-1.75,0.29-2.16,5.52-3.08,9.86c-0.85,4.02-3.22,12.73-3.22,12.73s2.76,1.29,8.62,2.67 s5.86,1.38,5.86,1.38l5.69-23.36c0,0-3.95-0.95-7.67-1.98C45.23,90.89,43.43,90.11,41.87,90.37z" fill="#FEFEFE"/>
  <path d="M64.82,96.63c-0.81-0.05-3.21,5.7-4.49,11.33c-1.28,5.63-2.14,10.4-2.14,10.4s2.92,0.64,5.77,0.78 s5.81-0.4,5.81-0.4s-0.33-7.31-0.94-11.3C68.19,103.19,66.1,96.7,64.82,96.63z" fill="#FEFEFE"/>
  <path d="M75.51,92.85c0,0,3.56-0.21,8.34-1.21c4.77-1,6.84-2.56,8.05-1.64c1.21,0.93,2.78,8.19,3.99,13.04 c1.21,4.84,2.64,9.69,1.92,10.4c-0.71,0.71-8.69,2.49-10.76,3.13s-7.62-8.12-7.69-8.69C79.28,107.31,75.51,92.85,75.51,92.85z" fill="#FEFEFE"/>
  <path d="M37.44,83.67c0,0.23-2.95,11.02-3.86,14.48c-0.91,3.46-3.79,13.32-3.79,13.32s1,0.42,1.52,0.59 s1.27,0.5,1.27,0.5s3.67-14.36,4.47-17.48s1.87-7.5,2.33-8.86s0.79-2.44,0.79-2.44L37.44,83.67z" fill="#9A9A9A"/>
  <path d="M38.63,77.2c0,0,0.23-1.87,0.57-2.56s12.43-18,17.25-26.86c5.24-9.63,7.55-15.26,7.55-15.26 s-5.32-6.16-8.24-11.02s-4.08-9.79-3.85-11.87c0.23-2.08,1.93-4.08,1.93-4.08s3.16-1.16,10.4-1.39c7.4-0.23,11.33,1.77,11.33,1.77 s2.23,3.99-1.46,12.87c-5.01,12.02-9.25,20.42-14.56,29.74S42.03,78.22,42.03,78.22L38.63,77.2z" fill="#9A9A9A"/>
  <path d="M13.73,94.14c0.31,1.16,2.41,1.81,7.34,0.42s6.63-3.47,6.32-4.47c-0.31-1-1.93-0.62-7.17,1 C14.99,92.71,13.43,93,13.73,94.14z" fill="#9A9A9A"/>
  <path d="M102.75,90.32c0,1.41,2.7,3.54,7.01,4.47s7.78,0.08,8.01-1.31c0.23-1.39-3.08-1.62-7.01-2.47 C106.84,90.16,102.75,88.78,102.75,90.32z" fill="#9A9A9A"/>
  <path d="M33.71,75.24c-1.36,0.52-0.71,2.73-0.81,4.65c-0.1,1.92,0,3.14,0.71,4.05 c0.71,0.91,10.32,5.56,31.05,5.36s30.59-4.17,31.14-4.84c0.77-0.93,0.76-3.27,0.78-5.24c0.04-2.66-0.32-4.99-1.71-4.55 c-0.92,0.29-9.27,3.51-18.18,4.42c-8.9,0.91-21.48,0.46-27.71-0.4C38.06,77.16,35.03,74.73,33.71,75.24z" fill="#434343"/>
  <path d="M68.24,79.54c0,0-1.19-1.6-3.2-1.56c-1.68,0.03-2.99,1.62-2.99,1.62s-8.45,8.42-12.02,17.05 c-2.7,6.53-5.08,13.9-7.17,18.26c-2.08,4.36-4.21,7.21-3.41,8.7c0.79,1.49,9.82,3.17,11.41,2.08c1.59-1.09,4.06-13.06,5.8-19.18 c2.19-7.69,4.58-12.12,6.25-14.52c0.36-0.52,1.09,0.06,2.22,0.36c0.38,0.1,1.64-0.69,1.82-0.41c1.23,1.9,2.95,5.07,4.83,10.14 c3.86,10.44,4.86,23.01,5.65,23.6c0.79,0.6,3.76,0.82,6.53,0.39c2.56-0.39,5.57-1.29,6.06-2.28s-4.36-13.98-9.62-24.89 C75.15,88,68.24,79.54,68.24,79.54z" fill="#434343"/>
  <path d="M59.29,79.46l2.83,0.05c0,0-3.93,4.56-3.69,5.83s5.15,5.74,6.77,5.54c1.62-0.2,6.08-4.87,5.98-5.8 s-2.92-5.55-2.92-5.55l2.83-0.08c0,0,3.22,4.16,3.07,6.12c-0.15,1.96-6.12,7.76-8.96,7.86c-2.85,0.1-9.24-5.15-9.42-8.1 C55.64,82.89,59.43,79.31,59.29,79.46z" fill="#606568"/>
</svg>

<svg viewBox="0 0 128 128" xmlns="http://www.w3.org/2000/svg">
  <defs/>
  <path d="M52.95,5.41 C52.95,5.41 50.37,5.11 47.48,7.3 C43.82,10.08 44.2,11.38 44.2,11.38 C44.2,11.38 36.74,12.37 28.39,18.84 C20.04,25.31 14.48,37.22 11.5,43.08 C8.52,48.94 4.44,57 3.94,59.19 C3.44,61.38 3.54,62.87 4.24,66.65 C4.94,70.43 8.32,82.26 9.11,85.64 C9.91,89.02 12.09,94.49 12.29,95.88 C12.49,97.27 16.68,97.74 21.53,96.68 C25.61,95.79 29.48,93.3 29.88,91.91 C30.28,90.52 27,80.88 25.41,76.6 C23.82,72.33 22.83,67.65 22.83,67.65 C22.83,67.65 25.12,63.87 27.1,60.19 C29.08,56.51 33.26,49.85 33.26,49.85 C33.26,49.85 33.56,53.83 33.56,58.2 C33.56,62.57 32.17,68.14 33.26,71.02 C34.35,73.9 36.34,78.57 36.34,78.57 C36.34,78.57 34.15,88.01 31.47,96.46 C28.79,104.91 27.1,109.78 27.1,109.78 C27.1,109.78 28.29,110.77 29.78,111.47 C31.27,112.17 32.56,112.56 32.56,112.56 L31.96,115.74 C31.96,115.74 42.6,122.8 64.56,123.29 C86.53,123.79 102.53,116.53 103.13,114.84 C103.73,113.15 96.47,88.4 95.97,86.51 C95.47,84.62 93.29,76.37 93.29,76.37 C93.29,76.37 96.37,73.79 96.67,67.62 C96.97,61.45 96.17,49.93 96.97,49.73 C97.77,49.53 105.22,66.53 105.22,66.53 C105.22,66.53 104.62,74.78 102.83,81.04 C101.04,87.3 100.05,90.88 100.64,91.97 C101.24,93.06 103.92,95.35 109.59,96.44 C115.26,97.53 119.43,97.33 119.93,95.64 C120.43,93.95 122.91,79.54 123.61,69.99 C124.31,60.44 122.81,55.48 121.32,51.5 C119.83,47.52 114.56,39.27 112.77,34.3 C110.98,29.33 107.7,20.78 105.22,19.39 C102.74,18 96.97,15.02 92.3,13.62 C87.63,12.23 83.45,10.94 83.45,10.94 C83.45,10.94 82.63,8.38 78.4,6.5 C75.72,5.31 74.03,5.8 74.03,5.8 L64.09,7.79 L52.95,5.41 Z" fill="#C9C9C9"/>
  <path d="M27.33,23.87 C27.33,23.87 21.73,28.54 16.75,38.18 C11.77,47.82 10.74,53.11 8.97,55.29 C7.2,57.47 5.55,60.06 6.79,66.28 C8.03,72.5 13.84,93.97 13.84,93.97 C13.84,93.97 18.82,93.14 21.41,92.31 C24,91.48 27.11,90.34 26.91,89.41 C26.7,88.48 20.69,67.53 20.69,67.53 C20.69,67.53 13.85,64 14.47,63.28 C15.09,62.55 21.52,63.38 21.52,63.38 C21.52,63.38 26.39,55.4 27.85,52.8 C29.3,50.21 30.65,48.55 30.55,47.3 C30.45,46.06 27.54,37.97 28.37,37.14 C29.2,36.31 34.49,43.78 35.73,45.23 C36.97,46.68 37.29,47.41 37.29,47.41 C37.29,47.41 35.53,66.28 36.67,67.84 C37.81,69.4 39.47,69.29 39.47,69.29 C39.47,69.29 46.83,59.02 50.88,52.18 C54.93,45.34 57.21,40.57 57.21,40.57 C57.21,40.57 50.68,31.07 47.24,24 C44.37,18.09 43.6,13.61 43.6,13.61 C43.6,13.61 39.76,14.96 36.86,16.72 C33.96,18.48 31.57,20.25 31.57,20.25 C31.57,20.25 36.24,32.07 34.78,33.42 C33.34,34.76 27.33,23.87 27.33,23.87 Z" fill="#FEFEFE"/>
  <path d="M58.94,38.99 C58.94,38.99 61.81,34.02 61.6,33.32 C61.39,32.62 55.07,25.29 52.56,20.08 C48.08,10.76 50.04,7.75 50.04,7.75 C50.04,7.75 48.71,8.1 47.31,9.78 C45.91,11.46 45.35,13.07 45.35,13.07 C45.35,13.07 46.33,18.18 49.06,23.79 C53.12,32.11 58.94,38.99 58.94,38.99 Z" fill="#FEFEFE"/>
  <path d="M73.65,8.03 C73.65,8.03 75.26,7.47 76.03,7.4 C76.8,7.33 78.75,8.4 79.95,9.43 C81.16,10.47 82.26,12.37 82.26,12.37 C82.26,12.37 79.73,21.09 72.39,34.86 C65.04,48.63 58.05,60.82 54.63,66.24 C51.21,71.66 48.21,75.51 48.21,75.51 C48.21,75.51 46.43,76.22 45.78,74.3 C45.14,72.37 44.5,68.74 44.5,68.74 L55.63,52.05 L64.26,35.65 L72.03,18.89 L73.65,8.03 Z" fill="#FEFEFE"/>
  <path d="M84.26,13.55 C84.9,13.41 88.16,14.25 92.58,15.96 C97,17.67 101.07,19.67 101.21,20.67 C101.35,21.67 97.14,33.94 98.5,34.51 C99.86,35.08 104.85,24.67 105.63,24.67 C106.41,24.67 108.55,28.24 109.62,31.23 C110.69,34.22 111.12,36.94 112.12,38.86 C113.12,40.78 120.82,51.41 120.96,64.11 C121.1,76.81 118.11,91.43 117.75,92.28 C117.39,93.14 113.68,93.64 110.47,92.85 C107.26,92.07 102.84,90.85 103.19,89.43 C103.55,88 105.26,82.58 106.11,79.37 C106.97,76.16 107.25,72.45 107.61,71.88 C107.97,71.31 115.03,68.53 114.89,67.46 C114.75,66.39 109.18,66.6 108.19,65.32 C107.19,64.04 99.35,47.42 99.27,46.28 C99.2,45.14 102.98,39.43 101.84,38.65 C100.7,37.87 91.78,48.92 91.64,49.63 C91.5,50.34 93.21,54.12 93.28,59.9 C93.35,65.68 94.28,69.6 90.28,71.81 C86.29,74.02 78.94,74.81 73.95,73.59 C68.96,72.37 67.53,70.31 67.53,70.31 C67.53,70.31 64.11,72.16 59.47,73.52 C54.83,74.88 51.31,75.17 51.31,75.17 C51.31,75.17 63.21,58.12 72.4,39.7 C81.78,20.93 84.26,13.55 84.26,13.55 Z" fill="#FEFEFE"/>
  <path d="M41.87,90.37 C40.12,90.66 39.71,95.89 38.79,100.23 C37.94,104.25 35.57,112.96 35.57,112.96 C35.57,112.96 38.33,114.25 44.19,115.63 C50.05,117.01 50.05,117.01 50.05,117.01 L55.74,93.65 C55.74,93.65 51.79,92.7 48.07,91.67 C45.23,90.89 43.43,90.11 41.87,90.37 Z" fill="#FEFEFE"/>
  <path d="M64.82,96.63 C64.01,96.58 61.61,102.33 60.33,107.96 C59.05,113.59 58.19,118.36 58.19,118.36 C58.19,118.36 61.11,119 63.96,119.14 C66.81,119.28 69.77,118.74 69.77,118.74 C69.77,118.74 69.44,111.43 68.83,107.44 C68.19,103.19 66.1,96.7 64.82,96.63 Z" fill="#FEFEFE"/>
  <path d="M75.51,92.85 C75.51,92.85 79.07,92.64 83.85,91.64 C88.62,90.64 90.69,89.08 91.9,90 C93.11,90.93 94.68,98.19 95.89,103.04 C97.1,107.88 98.53,112.73 97.81,113.44 C97.1,114.15 89.12,115.93 87.05,116.57 C84.98,117.21 79.43,108.45 79.36,107.88 C79.28,107.31 75.51,92.85 75.51,92.85 Z" fill="#FEFEFE"/>
  <path d="M37.44,83.67 C37.44,83.9 34.49,94.69 33.58,98.15 C32.67,101.61 29.79,111.47 29.79,111.47 C29.79,111.47 30.79,111.89 31.31,112.06 C31.83,112.23 32.58,112.56 32.58,112.56 C32.58,112.56 36.25,98.2 37.05,95.08 C37.85,91.96 38.92,87.58 39.38,86.22 C39.84,84.86 40.17,83.78 40.17,83.78 L37.44,83.67 Z" fill="#9A9A9A"/>
  <path d="M38.63,77.2 C38.63,77.2 38.86,75.33 39.2,74.64 C39.54,73.95 51.63,56.64 56.45,47.78 C61.69,38.15 64,32.52 64,32.52 C64,32.52 58.68,26.36 55.76,21.5 C52.84,16.64 51.68,11.71 51.91,9.63 C52.14,7.55 53.84,5.55 53.84,5.55 C53.84,5.55 57,4.39 64.24,4.16 C71.64,3.93 75.57,5.93 75.57,5.93 C75.57,5.93 77.8,9.92 74.11,18.8 C69.1,30.82 64.86,39.22 59.55,48.54 C54.24,57.86 42.03,78.22 42.03,78.22 L38.63,77.2 Z" fill="#9A9A9A"/>
  <path d="M13.73,94.14 C14.04,95.3 16.14,95.95 21.07,94.56 C26,93.17 27.7,91.09 27.39,90.09 C27.08,89.09 25.46,89.47 20.22,91.09 C14.99,92.71 13.43,93 13.73,94.14 Z" fill="#9A9A9A"/>
  <path d="M102.75,90.32 C102.75,91.73 105.45,93.86 109.76,94.79 C114.07,95.72 117.54,94.87 117.77,93.48 C118,92.09 114.69,91.86 110.76,91.01 C106.84,90.16 102.75,88.78 102.75,90.32 Z" fill="#9A9A9A"/>
  <path d="M33.71,75.24 C32.35,75.76 33,77.97 32.9,79.89 C32.8,81.81 32.9,83.03 33.61,83.94 C34.32,84.85 43.93,89.5 64.66,89.3 C85.39,89.1 95.25,85.13 95.8,84.46 C96.57,83.53 96.56,81.19 96.58,79.22 C96.62,76.56 96.26,74.23 94.87,74.67 C93.95,74.96 85.6,78.18 76.69,79.09 C67.79,80 55.21,79.55 48.98,78.69 C38.06,77.16 35.03,74.73 33.71,75.24 Z" fill="#434343"/>
  <path d="M68.24,79.54 C68.24,79.54 67.05,77.94 65.04,77.98 C63.36,78.01 62.05,79.6 62.05,79.6 C62.05,79.6 53.6,88.02 50.03,96.65 C47.33,103.18 44.95,110.55 42.86,114.91 C40.78,119.27 38.65,122.12 39.45,123.61 C40.24,125.1 49.27,126.78 50.86,125.69 C52.45,124.6 54.92,112.63 56.66,106.51 C58.85,98.82 61.24,94.39 62.91,91.99 C63.27,91.47 64,92.05 65.13,92.35 C65.51,92.45 66.77,91.66 66.95,91.94 C68.18,93.84 69.9,97.01 71.78,102.08 C75.64,112.52 76.64,125.09 77.43,125.68 C78.22,126.28 81.19,126.5 83.96,126.07 C86.52,125.68 89.53,124.78 90.02,123.79 C90.51,122.8 85.66,109.81 80.4,98.9 C75.15,88 68.24,79.54 68.24,79.54 Z" fill="#434343"/>
  <path d="M59.29,79.46 L62.12,79.51 C62.12,79.51 58.19,84.07 58.43,85.34 C58.67,86.61 63.58,91.08 65.2,90.88 C66.82,90.68 71.28,86.01 71.18,85.08 C71.08,84.15 68.26,79.53 68.26,79.53 L71.09,79.45 C71.09,79.45 74.31,83.61 74.16,85.57 C74.01,87.53 68.04,93.33 65.2,93.43 C62.35,93.53 55.96,88.28 55.78,85.33 C55.64,82.89 59.43,79.31 59.29,79.46 Z" fill="#606568"/>
</svg>
